X:1
T:Lahore, 11.11.11.11
T:Lahore, 11.11.11.11
T:William Fiske Sherwin, 1873
T:Public Domain Courtesy of the Cyber Hymnal™
C:William Fiske Sherwin, 1873
Z:Public Domain
Z:Courtesy of the Cyber Hymnal™
%%score ( 1 2 ) ( 3 4 )
L:1/8
Q:1/4=145
M:6/4
K:F
V:1 treble 
V:2 treble 
V:3 bass 
V:4 bass 
V:1
 [Fc]4 [Fd]2 [Fc]4 [FB]2 | [FA]4 [EG]2 F6 | [EG]6 [FA]4 [GB]2 | [FA]6- [FA]4 z2 | %4
 [Ac]4 [Bd]2 [Ac]4 [GB]2 | [FA]4 [EG]2 F6 | [FG]6 [EA]4 [EG]2 | F6- F4 z2 | %8
 [EG]4 [^D^F]2 [EG]4 [Ec]2 | [Ec]4 [FA]2 [EG]6 | [Ec]6 [Fd]4 [F=B]2 | [Ec]6- [Ec]4 z2 | %12
 [Fc]4 [FA]2 [FB]4 [Fd]2 | [Fc]4 [FA]2 (c4 B2) | [FA]6 [CF]4 [CG]2 | [CF]6- [CF]4 z2 |] %16
V:2
 x12 | x6 F6 | x12 | x12 | x12 | x6 F6 | x12 | F6- F4 x2 | x12 | x12 | x12 | x12 | x12 | x6 F6 | %14
 x12 | x12 |] %16
V:3
 [F,A,]4 [F,B,]2 [F,A,]4 [F,D]2 | [F,C]4 [C,B,]2 [D,A,]6 | [C,C]6 [C,C]4 [C,C]2 | %3
 [F,C]6- [F,C]4 z2 | F,4 F,2 F,4 [F,D]2 | [F,C]4 [C,B,]2 [D,A,]6 | [B,,D]6 [C,C]4 [C,B,]2 | %7
 [F,A,]6- [F,A,]4 z2 | [C,G,]4 [C,A,]2 [C,G,]4 [C,G,]2 | [C,G,]4 [C,C]2 [C,C]6 | %10
 [G,C]6 [G,=B,]4 [G,D]2 | ([C,-C]6 [C,B,]4) z2 | [F,A,]4 [F,C]2 [F,D]4 [F,B,]2 | %13
 [F,A,]4 [F,C]2 [F,A,]4 [B,,D]2 | [C,C]6 [C,A,]4 [C,B,]2 | [F,A,]6- [F,A,]4 z2 |] %16
V:4
 x12 | x12 | x12 | x12 | F,4 F,2 F,4 x2 | x12 | x12 | x12 | x12 | x12 | x12 | x12 | x12 | x12 | %14
 x12 | x12 |] %16

